svg/add-tag.svg

<?xml version="1.0" encoding="UTF-8"?>
<svg xmlns="http://www.w3.org/2000/svg" xmlns:xlink="http://www.w3.org/1999/xlink" width="32" height="32" viewBox="0 0 32 32">
<path fill-rule="nonzero" fill="rgb(0%, 0%, 0%)" fill-opacity="1" d="M 18.558594 1.28125 C 17.734375 1.28125 16.929688 1.328125 16.359375 1.898438 L 1.820312 16.441406 C 1.472656 16.792969 1.277344 17.265625 1.28125 17.761719 C 1.28125 18.253906 1.46875 18.710938 1.820312 19.058594 L 12.941406 30.179688 C 13.289062 30.53125 13.746094 30.71875 14.238281 30.71875 C 14.734375 30.71875 15.210938 30.53125 15.558594 30.179688 L 18.601562 27.140625 C 19.648438 29.25 21.808594 30.71875 24.320312 30.71875 C 27.851562 30.714844 30.714844 27.851562 30.71875 24.320312 C 30.71875 21.808594 29.25 19.648438 27.140625 18.601562 L 30.101562 15.640625 C 30.726562 15.015625 30.726562 14.105469 30.71875 13.238281 L 30.71875 3.519531 C 30.71875 2.285156 29.71875 1.28125 28.480469 1.28125 Z M 24.960938 5.121094 C 26.019531 5.121094 26.878906 5.980469 26.878906 7.042969 C 26.878906 8.101562 26.019531 8.960938 24.957031 8.960938 C 23.898438 8.960938 23.039062 8.101562 23.039062 7.039062 C 23.039062 5.980469 23.902344 5.121094 24.960938 5.121094 M 24.320312 19.199219 C 25.679688 19.199219 26.980469 19.738281 27.945312 20.699219 C 29.9375 22.703125 29.9375 25.941406 27.945312 27.945312 C 26.984375 28.90625 25.679688 29.445312 24.320312 29.441406 C 22.960938 29.445312 21.65625 28.90625 20.695312 27.945312 C 19.734375 26.984375 19.195312 25.679688 19.199219 24.320312 C 19.195312 22.964844 19.734375 21.660156 20.695312 20.699219 C 21.65625 19.738281 22.960938 19.199219 24.320312 19.199219 M 23.679688 21.121094 L 23.679688 23.679688 L 21.121094 23.679688 L 21.121094 24.960938 L 23.679688 24.960938 L 23.679688 27.519531 L 24.957031 27.519531 L 24.957031 24.960938 L 27.519531 24.960938 L 27.519531 23.679688 L 24.957031 23.679688 L 24.957031 21.121094 Z M 23.679688 21.121094 "/>
</svg>

<svg role="img" viewBox="0 0 32 32" height="32" width="32" xmlns="http://www.w3.org/2000/svg"><path d="M18.559 1.281c-.825 0-1.63.047-2.2.617L1.82 16.441a1.855 1.855 0 0 0-.539 1.32c0 .493.188.95.54 1.298l11.12 11.12c.348.352.805.54 1.297.54.496 0 .973-.188 1.32-.54l3.044-3.038c1.046 2.109 3.207 3.578 5.718 3.578a6.407 6.407 0 0 0 6.399-6.399c0-2.511-1.469-4.672-3.578-5.718l2.96-2.961c.626-.625.626-1.536.618-2.403V3.52c0-1.235-1-2.239-2.239-2.239Zm6.402 3.84a1.92 1.92 0 1 1-.003 3.84 1.92 1.92 0 0 1 .003-3.84M24.32 19.2c1.359 0 2.66.54 3.624 1.5a5.14 5.14 0 0 1 0 7.246 5.103 5.103 0 0 1-3.625 1.496 5.107 5.107 0 0 1-5.12-5.12 5.104 5.104 0 0 1 1.495-3.622 5.131 5.131 0 0 1 3.625-1.5m-.64 1.922v2.559H21.12v1.28h2.559v2.56h1.277v-2.56h2.563v-1.28h-2.563V21.12Zm0 0"/></svg>
